X: 10394
Q: "Sprightly."
M: 6/8
L: 1/8
K: G
(d/c/) |\
|: (g/a/) |\
b2g a2f | gfe dcB | cde dgB | BAA A2 (g/a/) |
b2g a2f | (g>f).e (a>g).f | (b>a).g fge | dgf edc |\


